X: 19331
T: Jack Keane's
R: reel
M: 4/4
K: Dmajor
|:B|AD (3DDD A3B|AFDE FEEB|AD (3DDD A3B|ABdf efd:|
|:f|a2 fd eddB|ABdf eBBf|a2 fd eddB|ABdf e2d:|

